X: 16187
T: Green Pigeon, The
R: reel
M: 4/4
K: Dmajor
|FGAG FD(3DDD|FDAF G2AG|FDAF GFED|BdcA G2AG|
FDAF GFED|FDAF G2AG|FDAF GABc|dBcA G2FG|
A3B cABG|A2AB c2dc|A3B cABG|BdcA G2FG|
A3B cABG|A2AB c2Bc|dBcA BGAG|Adde dcAG|

